src/images/single-assets/fWINGS.svg

<svg xmlns="http://www.w3.org/2000/svg" width="24px" height="24" fill="none" version="1.1" viewBox="0 0 24 24" color="text" class="sc-bdfBQB gJpcrg"><path d="M12 24C18.6274 24 24 18.6274 24 12C24 5.37258 18.6274 0 12 0C5.37258 0 0 5.37258 0 12C0 18.6274 5.37258 24 12 24Z" fill="#2A6FF6"></path><path d="M7.74373 9.67477C5.71418 9.65507 3.68462 9.67477 1.63536 9.67477C1.33979 9.67477 1.26097 9.793 1.28068 10.0492C1.32009 10.8176 1.89152 11.4482 2.65999 11.6649H6.95556V11.9211H3.36935C3.36935 11.9408 3.38905 11.9605 3.38905 11.9999C3.5861 12.8866 4.07871 13.4383 4.88659 13.6945H6.93585V13.9506H5.47772C5.47772 13.9506 5.47772 13.9703 5.49743 13.9703C5.75359 14.8964 6.48265 15.4482 7.46787 15.4876C9.20186 15.5664 10.6206 14.325 10.6797 12.6501C10.7782 11.1132 9.41861 9.69448 7.74373 9.67477Z" fill="white"></path><path d="M22.3841 9.67477C20.3546 9.67477 18.325 9.65507 16.2757 9.67477C14.5812 9.69448 13.2019 11.0935 13.3004 12.6501C13.3989 14.3447 14.7979 15.5664 16.5122 15.4876C17.5171 15.4482 18.2265 14.8964 18.4826 13.9703C18.4826 13.9703 18.4826 13.9506 18.5024 13.9506H17.0442V13.6945H19.1132C19.9211 13.4383 20.394 12.8866 20.6107 11.9999C20.6107 11.9802 20.6304 11.9605 20.6304 11.9211H17.0639V11.6649H21.3595C22.1477 11.4482 22.7191 10.7782 22.7388 10.0492C22.7585 9.793 22.66 9.67477 22.3841 9.67477Z" fill="white"></path></svg>

<svg xmlns="http://www.w3.org/2000/svg" width="24" height="24" fill="none" class="sc-bdfBQB gJpcrg" color="text"><path fill="#2A6FF6" d="M12 24c6.627 0 12-5.373 12-12S18.627 0 12 0 0 5.373 0 12s5.373 12 12 12"/><path fill="#fff" d="M7.744 9.675c-2.03-.02-4.06 0-6.109 0-.295 0-.374.118-.354.374.04.769.61 1.4 1.379 1.616h4.296v.256H3.369c0 .02.02.04.02.079.197.887.69 1.438 1.498 1.694h2.049v.257H5.478s0 .02.02.02c.256.925.985 1.477 1.97 1.517 1.734.078 3.153-1.163 3.212-2.838.098-1.537-1.261-2.956-2.936-2.975M22.384 9.675c-2.03 0-4.059-.02-6.108 0-1.695.02-3.074 1.418-2.976 2.975.099 1.695 1.498 2.916 3.212 2.838 1.005-.04 1.715-.592 1.97-1.518 0 0 0-.02.02-.02h-1.458v-.255h2.07c.807-.257 1.28-.808 1.497-1.695 0-.02.02-.04.02-.079h-3.567v-.256h4.296c.788-.217 1.36-.887 1.379-1.616.02-.256-.079-.374-.355-.374"/></svg>
